src/assets/github.svg

<svg width="33" height="33" viewBox="0 0 33 33" fill="none" xmlns="http://www.w3.org/2000/svg">
<path d="M10.9862 25.7448C10.9862 25.9213 10.8759 26.0095 10.6553 26.0095C10.3906 26.0536 10.2582 25.9654 10.2582 25.7448C10.2582 25.6124 10.3685 25.5462 10.5891 25.5462C10.8538 25.5021 10.9862 25.5683 10.9862 25.7448ZM9.19929 25.811C8.93456 25.7668 8.82426 25.6565 8.86838 25.48C8.95662 25.3036 9.11105 25.2594 9.33166 25.3477C9.55226 25.3918 9.6405 25.5021 9.59638 25.6786C9.55226 25.8551 9.4199 25.8992 9.19929 25.811ZM11.8466 25.3477C12.0672 25.3477 12.1775 25.4139 12.1775 25.5462C12.2216 25.6786 12.1334 25.7889 11.9128 25.8771C11.6921 25.9213 11.5598 25.8551 11.5157 25.6786C11.5157 25.5021 11.626 25.3918 11.8466 25.3477ZM16.2146 0C19.2148 0 21.9945 0.705941 24.5535 2.11782C27.1125 3.5297 29.1201 5.47104 30.5761 7.94183C32.0762 10.4126 32.8262 13.1481 32.8262 16.1484C32.8262 19.8105 31.7894 23.0975 29.7157 26.0095C27.6861 28.8774 25.0168 30.8628 21.7077 31.9659C21.3547 32.0541 21.0679 32.01 20.8473 31.8335C20.6708 31.657 20.5826 31.4364 20.5826 31.1717C20.5826 31.1276 20.5826 30.4216 20.5826 29.0539C20.5826 27.642 20.5826 26.4948 20.5826 25.6124C20.5826 24.2005 20.2076 23.1857 19.4575 22.568C20.4282 22.4357 21.1782 22.3254 21.7077 22.2371C22.2371 22.1489 22.899 21.9503 23.6931 21.6415C24.4873 21.3326 25.083 20.9356 25.4801 20.4502C25.9213 19.9649 26.2963 19.281 26.6051 18.3986C26.914 17.5162 27.0684 16.4572 27.0684 15.2218C27.0684 14.3835 26.9361 13.6997 26.6713 13.1702C26.4066 12.6407 25.9654 12.0451 25.3477 11.3833C25.8771 10.0155 25.833 8.51541 25.2153 6.88292C24.7741 6.75056 24.1785 6.8388 23.4284 7.14765C22.6784 7.41238 22.0165 7.72123 21.443 8.0742L20.6488 8.66983C19.281 8.27274 17.8691 8.0742 16.4131 8.0742C15.0012 8.0742 13.6335 8.27274 12.3098 8.66983C12.0892 8.49335 11.7804 8.2948 11.3833 8.0742C10.9862 7.80947 10.3685 7.52268 9.5302 7.21383C8.73602 6.86086 8.14038 6.75056 7.74329 6.88292C7.08147 8.51541 7.01529 10.0155 7.54474 11.3833C6.52995 12.4863 6.02256 13.7658 6.02256 15.2218C6.02256 16.4572 6.17698 17.5162 6.48583 18.3986C6.79468 19.281 7.14765 19.9649 7.54474 20.4502C7.94183 20.9356 8.51541 21.3326 9.26547 21.6415C10.0155 21.9503 10.6553 22.1709 11.1848 22.3033C11.7583 22.3916 12.5084 22.4798 13.4349 22.568C12.8614 23.0975 12.5084 23.8476 12.376 24.8182C11.9348 24.9947 11.4715 25.1271 10.9862 25.2153C10.545 25.3036 9.97141 25.2153 9.26547 24.9506C8.55953 24.6859 7.98596 24.1785 7.54474 23.4284C7.28001 22.9431 6.92704 22.568 6.48583 22.3033C6.08874 21.9945 5.73577 21.818 5.42692 21.7739L5.02983 21.7077C4.05916 21.7077 4.01504 22.0386 4.89746 22.7004C5.20631 22.8769 5.51516 23.1637 5.82401 23.5608C6.13286 23.9579 6.35347 24.3108 6.48583 24.6197L6.75056 25.1491C6.92704 25.6786 7.23589 26.1198 7.67711 26.4728C8.11832 26.8257 8.60365 27.0464 9.13311 27.1346C9.66257 27.2228 10.17 27.267 10.6553 27.267C11.1406 27.267 11.5377 27.2449 11.8466 27.2008L12.3098 27.1346C12.3098 27.664 12.3098 28.4582 12.3098 29.5171C12.354 30.5761 12.376 31.1276 12.376 31.1717C12.376 31.4364 12.2657 31.657 12.0451 31.8335C11.8686 32.01 11.6039 32.0541 11.2509 31.9659C7.89771 30.8628 5.18425 28.8774 3.11055 26.0095C1.03685 23.0975 0 19.8105 0 16.1484C0 11.5598 1.54425 7.72123 4.63274 4.63274C7.76535 1.54425 11.626 0 16.2146 0ZM6.41965 22.8328C6.50789 22.7445 6.6182 22.7666 6.75056 22.899C6.88292 23.0313 6.90498 23.1416 6.81674 23.2299C6.7285 23.3181 6.6182 23.296 6.48583 23.1637C6.35347 23.0313 6.33141 22.921 6.41965 22.8328ZM5.69165 22.3033C5.77989 22.2151 5.89019 22.193 6.02256 22.2371C6.15492 22.3254 6.19904 22.4136 6.15492 22.5019C6.1108 22.6342 6.02256 22.6563 5.89019 22.568C5.71371 22.4798 5.64753 22.3916 5.69165 22.3033ZM7.87565 24.6197C7.9639 24.4873 8.09626 24.5094 8.27274 24.6859C8.44923 24.8623 8.49335 25.0168 8.40511 25.1491C8.27274 25.2815 8.11832 25.2594 7.94183 25.083C7.76535 24.9065 7.74329 24.752 7.87565 24.6197ZM7.08147 23.6931C7.21383 23.5608 7.3462 23.6049 7.47856 23.8255C7.61092 24.002 7.61092 24.1343 7.47856 24.2226C7.3462 24.3108 7.21383 24.2667 7.08147 24.0902C6.99323 23.8696 6.99323 23.7373 7.08147 23.6931Z" fill="#7CE0D6"/>
</svg>

<svg width="33" height="33" fill="none" xmlns="http://www.w3.org/2000/svg"><path d="M10.986 25.745c0 .176-.11.264-.33.264-.265.045-.398-.044-.398-.264 0-.133.11-.199.331-.199.265-.044.397.022.397.199zM9.2 25.81c-.264-.044-.375-.154-.33-.331.088-.176.242-.22.463-.132.22.044.308.154.264.33-.044.177-.176.221-.397.133zm2.648-.463c.22 0 .33.066.33.198.045.133-.044.243-.264.331-.22.044-.353-.022-.397-.198 0-.177.11-.287.33-.331zM16.215 0c3 0 5.78.706 8.338 2.118 2.56 1.412 4.567 3.353 6.023 5.824 1.5 2.47 2.25 5.206 2.25 8.206 0 3.663-1.037 6.95-3.11 9.861-2.03 2.868-4.7 4.854-8.008 5.957-.353.088-.64.044-.86-.133a.898.898 0 01-.265-.661v-2.118-3.442c0-1.411-.375-2.426-1.125-3.044.97-.132 1.72-.243 2.25-.33.53-.09 1.191-.288 1.985-.596.794-.31 1.39-.706 1.787-1.192.441-.485.816-1.169 1.125-2.051.309-.883.463-1.942.463-3.177 0-.838-.132-1.522-.397-2.052-.264-.53-.706-1.125-1.323-1.787.53-1.367.485-2.868-.133-4.5-.44-.132-1.037-.044-1.787.265a10.36 10.36 0 00-1.985.926l-.794.596a15.115 15.115 0 00-4.236-.596c-1.412 0-2.78.199-4.103.596a6.848 6.848 0 00-.927-.596c-.397-.265-1.014-.551-1.853-.86-.794-.353-1.39-.463-1.787-.331-.662 1.632-.728 3.132-.198 4.5-1.015 1.103-1.522 2.383-1.522 3.839 0 1.235.154 2.294.463 3.177.309.882.662 1.566 1.059 2.051.397.486.97.883 1.72 1.192.75.308 1.39.529 1.92.661.573.089 1.323.177 2.25.265-.574.53-.927 1.28-1.059 2.25a7.196 7.196 0 01-1.39.397c-.441.089-1.015 0-1.72-.264-.706-.265-1.28-.773-1.721-1.523a2.896 2.896 0 00-1.06-1.125c-.396-.309-.75-.485-1.058-.53l-.397-.065c-.97 0-1.015.33-.133.992.31.177.618.464.927.86.309.398.53.75.662 1.06l.265.53c.176.529.485.97.926 1.323.441.353.927.573 1.456.662a9.27 9.27 0 001.522.132c.486 0 .883-.022 1.192-.066l.463-.066v2.382c.044 1.06.066 1.61.066 1.655 0 .264-.11.485-.33.662-.177.176-.442.22-.795.132-3.353-1.103-6.067-3.089-8.14-5.957C1.037 23.098 0 19.811 0 16.15c0-4.59 1.544-8.428 4.633-11.516C7.765 1.544 11.626 0 16.215 0zM6.42 22.833c.088-.088.198-.066.33.066.133.132.155.243.067.33-.088.09-.199.067-.331-.065-.133-.133-.155-.243-.066-.331zm-.728-.53c.088-.088.198-.11.33-.066.133.088.177.177.133.265-.044.132-.132.154-.265.066-.176-.088-.242-.176-.198-.265zm2.184 2.317c.088-.133.22-.11.397.066.176.176.22.33.132.463-.132.133-.287.11-.463-.066-.177-.176-.199-.331-.066-.463zm-.795-.927c.133-.132.265-.088.398.133.132.176.132.308 0 .397-.133.088-.265.044-.398-.133-.088-.22-.088-.353 0-.397z" fill="#7CE0D6"/></svg>
